X:738
T:Mrs. Young of Cornhills
R:Reel
B:The Athole Collection
M:C|
L:1/8
K:F
c|~f2 af ecce|~f2 af bgga|~f2 af ecce|defg af ~f:|
|:a|~c2 Ac fcAc|~c2 Ac ~B2 GB|~c2 Ac fedc|dfeg af ~f:|

